X: 46
M: 6/8
L: 1/8
K: Dm
V: 1
d2A fed | a2A A2a | def efd | ^cde Aag |\
fef c2c | dcd A2A | BAB Gge | f2F F2 :|
|: f |\
(f//g//a3/)f gbg | (e//f//g3/)e faf | (d//e//f3/)d ege | (^c//d//e3/)c Ad=c |\
[K:=B][K:D][M:3/4] |:\
"_Gracieusement"\
f4e2 | d2c2d2 | edefga | (g2f2)g2 |\
a2(gf) (ba) | {a}g2(fe) (ag) | {g}f2(ed) (gf) |[1 {f2}e6 :|[2 {f2}e6 |]
|:\
e3g fa | g2f2e2 | (fd)(cd)(Be) | (d2c2)A2 | B2(AG) (ed) |\
c2(BA) (ag) | f2{a}g2{f}e2 |[1 {e2}d6 :|[2 {e2}d6 |]
V: 2 clef=bass middle=d
z |\
d3 d'3 | c'3 c3 | B3 g3 |
a3 ^c3 | d3 a3 | b3 f3 | g3 c'3 |
f3- f2 :||: z
d'3 b3 | c'3 a3 |
b3 g3 | a3 f3 | g3 e3 |
f2d g2a | f2g a2A | d3- d2 :|
[K:=B][K:D][M:3/4] |:\
"_Gracieusement"\
d2d'2a2 | f2e2d2 | a2c'2a2 | d'2d2e2 |
f2d2B2 | e2c2A2 | d2B2G2 |[1A2agfe :|[2 A2c2e2 |]
|:\
a2a2a2 | a2a2a2 | d2f2g2 | a4f2 | g4^g2 |
a4c'2 | d'2g2a2 |[1dcdefg :|[2 d2A2D2 |]


